X:83
T:Briogan Seambo
R:Reel
B:The Athole Collection
M:C|
L:1/8
K:C
c|B/c/d dg ecce|BG G/G/G A=FFc|B/c/d dg ecce|BGAF G2G:|
c|BGdG BGG_B|A=FcF AFFA|BGdG BGG_B|A=FcA G2 G>c|
BGdG BGGc|A=FcF AFFc|BcdB cdec|BGAF G2G||

